X:22
T:Hpps simple chords 27
M:3/4
L:1/8
K:A
e>d [c2A,2C2E2] A>c | d2 B>d [c2A,2C2E2] | A>c B>G E>d | [c2A,2C2E2] A>c d2 | B>d [cA,CE]<A B<G |
A2 e>d [c2A,2C2E2] | A>c d2 B>d | [c2A,2C2E2] A>c B>G | E>d [c2A,2C2E2] A>c |
d2 B>d [cA,CE]<A | B<G A2 A>B | [cA,CE]<e e>a f2 | e>d [c2A,2C2E2] A>c |
B>G E>d [cA,CE]<e | e>a f2 e>d | [cA,CE]<A B<G A2 | A>B [cA,CE]<e e>a |
f2 e>d [c2A,2C2E2] | A>c B>G E>d | [cA,CE]<e e>a f2 | e>d [cA,CE]<A B<G |
A2 |


